images/patterns/8.svg

<?xml version="1.0" encoding="utf-8"?>
<!-- Generator: Adobe Illustrator 22.0.1, SVG Export Plug-In . SVG Version: 6.00 Build 0)  -->
<svg version="1.1" id="Layer_1" xmlns="http://www.w3.org/2000/svg" xmlns:xlink="http://www.w3.org/1999/xlink" x="0px" y="0px"
	 viewBox="0 0 120 120" style="enable-background:new 0 0 120 120;" xml:space="preserve">
<path d="M70,0h10L60,20V10L70,0z"/>
<path d="M60,30L90,0h10L60,40V30z"/>
<path d="M110,0h10L60,60v-9.9L110,0z"/>
<path d="M120,20L80,60H70l50-50V20z"/>
<path d="M120,30v10l-20,20H90L120,30z"/>
<path d="M120,50.1L110,60h10V50.1z"/>
<path d="M50,0H40l20,20V10L50,0z"/>
<path d="M60,30L30,0H20l40,40V30z"/>
<path d="M10,0H0l60,60v-9.9L10,0z"/>
<path d="M0,20l40,40h10L0,10V20z"/>
<path d="M0,30v10l20,20h10L0,30z"/>
<path d="M0,50.1L10,60H0V50.1z"/>
<path d="M50,60H40l20,20V70L50,60z"/>
<path d="M60,90L30,60H20l40,40V90z"/>
<path d="M10,60H0l60,60v-9.9L10,60z"/>
<path d="M0,80l40,40h10L0,70V80z"/>
<path d="M0,90v10l20,20h10L0,90z"/>
<path d="M0,110.1l10,9.9H0V110.1z"/>
<path d="M70,60h10L60,80V70L70,60z"/>
<path d="M60,90l30-30h10l-40,40V90z"/>
<path d="M110,60h10l-60,60v-9.9L110,60z"/>
<path d="M120,80l-40,40H70l50-50V80z"/>
<path d="M120,90v10l-20,20H90L120,90z"/>
<path d="M120,110.1l-10,9.9h10V110.1z"/>
</svg>

<?xml version="1.0" encoding="UTF-8"?>
<!DOCTYPE svg PUBLIC "-//W3C//DTD SVG 1.1//EN" "http://www.w3.org/Graphics/SVG/1.1/DTD/svg11.dtd">
<svg version="1.1" xmlns="http://www.w3.org/2000/svg" xmlns:xlink="http://www.w3.org/1999/xlink" x="0" y="0" width="120" height="120" viewBox="0, 0, 120, 120">
  <g id="Layer_1_Copy_Copy">
    <path d="M70,-0 L80,-0 L60,20 L60,10 L70,-0 z" fill="#000000"/>
    <path d="M60,30 L90,-0 L100,-0 L60,40 L60,30 z" fill="#000000"/>
    <path d="M110,0 L120,0 L60,60 L60,50.056 L110,0 z" fill="#000000"/>
    <path d="M120,20 L80,60 L70,60 L120,10 L120,20 z" fill="#000000"/>
    <path d="M120,30 L120,40 L100,60 L90,60 L120,30 z" fill="#000000"/>
    <path d="M120,50.056 L110,60 L120,60 L120,50.056 z" fill="#000000"/>
    <path d="M50,-0 L40,-0 L60,20 L60,10 L50,-0 z" fill="#000000"/>
    <path d="M60,30 L30,-0 L20,-0 L60,40 L60,30 z" fill="#000000"/>
    <path d="M10,-0 L-0,-0 L60,60 L60,50.056 L10,-0 z" fill="#000000"/>
    <path d="M-0,20 L40,60 L50,60 L-0,10 L-0,20 z" fill="#000000"/>
    <path d="M-0,30 L-0,40 L20,60 L30,60 L-0,30 z" fill="#000000"/>
    <path d="M0,50.056 L10,60 L0,60 L0,50.056 z" fill="#000000"/>
    <path d="M50,60 L40,60 L60,80 L60,70 L50,60 z" fill="#000000"/>
    <path d="M60,90 L30,60 L20,60 L60,100 L60,90 z" fill="#000000"/>
    <path d="M10,60 L-0,60 L60,120 L60,110.056 L10,60 z" fill="#000000"/>
    <path d="M-0,80 L40,120 L50,120 L-0,70 L-0,80 z" fill="#000000"/>
    <path d="M-0,90 L-0,100 L20,120 L30,120 L-0,90 z" fill="#000000"/>
    <path d="M0,110.056 L10,120 L0,120 L0,110.056 z" fill="#000000"/>
    <path d="M70,60 L80,60 L60,80 L60,70 L70,60 z" fill="#000000"/>
    <path d="M60,90 L90,60 L100,60 L60,100 L60,90 z" fill="#000000"/>
    <path d="M110,60 L120,60 L60,120 L60,110.056 L110,60 z" fill="#000000"/>
    <path d="M120,80 L80,120 L70,120 L120,70 L120,80 z" fill="#000000"/>
    <path d="M120,90 L120,100 L100,120 L90,120 L120,90 z" fill="#000000"/>
    <path d="M120,110.056 L110,120 L120,120 L120,110.056 z" fill="#000000"/>
  </g>
</svg>
